X:54
T:High O, Come Roll Me Over
M:3/4
L:1/8
K:F
A|\
F3 EFG|(G4 C>)G|E4 C2|CC C2 F2-|F2 z2 zA|
F3 EFG|(G4 C>)G|E4 F2|GC C2 F2||
